public/logos/WJ.svg

<?xml version="1.0" encoding="UTF-8"?>
<svg xmlns="http://www.w3.org/2000/svg" xmlns:xlink="http://www.w3.org/1999/xlink" width="176pt" height="41.51pt" viewBox="0 0 176 41.51" version="1.1">
<defs>
<clipPath id="clip1">
  <path d="M 52 13 L 71 13 L 71 41.511719 L 52 41.511719 Z M 52 13 "/>
</clipPath>
</defs>
<g id="surface1">
<g clip-path="url(#clip1)" clip-rule="nonzero">
<path style=" stroke:none;fill-rule:nonzero;fill:rgb(12.413025%,23.376465%,40.896606%);fill-opacity:1;" d="M 52.957031 21.027344 C 53.070312 20.621094 53.148438 20.203125 53.191406 19.78125 C 53.890625 16.902344 55.835938 15.1875 58.5625 14.332031 C 60.359375 13.824219 62.234375 13.667969 64.09375 13.863281 C 65.976562 14.019531 67.835938 14.414062 69.621094 15.03125 C 69.84375 15.074219 69.992188 15.289062 69.949219 15.515625 C 69.945312 15.535156 69.941406 15.558594 69.933594 15.578125 L 69.230469 20.25 C 68.53125 20.09375 67.832031 19.859375 67.128906 19.703125 C 65.304688 19.203125 63.402344 19.042969 61.523438 19.238281 C 60.894531 19.300781 60.285156 19.484375 59.730469 19.78125 C 58.71875 20.394531 58.394531 21.710938 59.003906 22.722656 C 59.132812 22.9375 59.300781 23.128906 59.496094 23.289062 C 60.191406 23.78125 60.949219 24.175781 61.757812 24.453125 C 63.375 24.949219 64.964844 25.546875 66.507812 26.246094 C 67.867188 26.84375 69.027344 27.816406 69.855469 29.050781 C 70.589844 30.183594 70.96875 31.511719 70.945312 32.867188 C 71.15625 36.847656 68.394531 40.371094 64.480469 41.121094 C 63.792969 41.300781 63.089844 41.402344 62.378906 41.433594 C 62.300781 41.433594 62.300781 41.433594 62.222656 41.507812 L 59.730469 41.507812 C 59.320312 41.421875 58.90625 41.367188 58.484375 41.355469 C 56.613281 41.121094 54.796875 40.566406 53.109375 39.71875 C 52.957031 39.40625 52.878906 39.328125 52.957031 39.015625 C 53.191406 37.460938 53.421875 35.824219 53.65625 34.265625 C 53.8125 34.265625 53.96875 34.421875 54.125 34.5 C 56.433594 35.6875 59.003906 36.277344 61.601562 36.214844 C 62.324219 36.207031 63.042969 36.050781 63.703125 35.746094 C 64.933594 35.230469 65.515625 33.808594 64.996094 32.574219 C 64.960938 32.488281 64.917969 32.402344 64.871094 32.320312 C 64.53125 31.878906 64.109375 31.507812 63.625 31.230469 C 62.515625 30.683594 61.371094 30.214844 60.199219 29.828125 C 58.726562 29.339844 57.316406 28.6875 55.992188 27.882812 C 55.207031 27.328125 54.519531 26.644531 53.96875 25.855469 C 53.6875 25.332031 53.453125 24.785156 53.265625 24.222656 C 53.011719 23.335938 52.90625 22.414062 52.957031 21.496094 C 53.035156 21.261719 53.035156 21.105469 52.957031 21.027344 "/>
</g>
<path style=" stroke:none;fill-rule:nonzero;fill:rgb(61.476135%,10.552979%,17.460632%);fill-opacity:1;" d="M 24.609375 0.00390625 C 24.609375 0.078125 24.6875 0.078125 24.765625 0.078125 C 25.9375 0.421875 26.652344 1.609375 26.398438 2.804688 C 26.164062 4.441406 26.011719 6 25.855469 7.632812 C 25.621094 9.425781 25.464844 11.136719 25.230469 12.929688 C 25.078125 14.410156 24.921875 15.964844 24.765625 17.445312 C 24.53125 19.082031 24.296875 20.796875 24.0625 22.429688 C 23.859375 24.222656 23.492188 25.996094 22.972656 27.726562 C 22.355469 29.980469 21.265625 32.074219 19.78125 33.878906 C 17.886719 36.136719 15.007812 37.328125 12.070312 37.070312 C 9.238281 36.960938 6.5 36.011719 4.207031 34.347656 C 2.019531 32.757812 0.539062 30.386719 0.078125 27.726562 C -0.0664062 27.152344 -0.0117188 26.550781 0.234375 26.011719 C 0.773438 25.148438 1.832031 24.761719 2.804688 25.078125 C 3.367188 25.261719 3.785156 25.742188 3.894531 26.324219 C 4.050781 26.792969 4.128906 27.257812 4.28125 27.726562 C 4.96875 29.800781 6.582031 31.441406 8.644531 32.164062 C 10.015625 32.757812 11.523438 32.972656 13.003906 32.789062 C 14.859375 32.589844 16.507812 31.519531 17.445312 29.90625 C 18.40625 28.363281 19.042969 26.640625 19.3125 24.84375 C 19.78125 21.960938 20.09375 19.082031 20.402344 16.199219 C 20.558594 14.410156 20.792969 12.617188 21.027344 10.75 C 21.261719 8.722656 21.414062 6.621094 21.570312 4.597656 C 21.648438 3.816406 21.726562 2.960938 21.804688 2.183594 C 21.890625 1.144531 22.652344 0.285156 23.675781 0.078125 C 23.71875 0.078125 23.753906 0.046875 23.753906 0.00390625 L 24.609375 0.00390625 "/>
<path style=" stroke:none;fill-rule:nonzero;fill:rgb(12.413025%,23.376465%,40.896606%);fill-opacity:1;" d="M 117.59375 18.769531 L 117.515625 18.769531 C 116.503906 22.742188 115.257812 26.636719 114.164062 30.6875 L 120.007812 30.6875 C 120.316406 30.6875 120.707031 30.761719 120.863281 30.609375 C 121.019531 30.449219 120.785156 30.0625 120.707031 29.75 C 119.851562 26.714844 118.996094 23.675781 118.214844 20.640625 C 117.9375 20.042969 117.730469 19.414062 117.59375 18.769531 Z M 130.363281 40.808594 L 123.980469 40.808594 C 123.746094 40.808594 123.667969 40.730469 123.589844 40.5 C 123.121094 38.941406 122.730469 37.382812 122.265625 35.902344 C 122.1875 35.667969 122.109375 35.589844 121.875 35.589844 L 112.84375 35.589844 C 112.609375 35.589844 112.53125 35.667969 112.453125 35.902344 C 111.984375 37.460938 111.597656 39.015625 111.128906 40.574219 C 111.050781 40.730469 111.050781 40.808594 110.894531 40.808594 L 104.742188 40.808594 C 104.976562 40.1875 105.132812 39.5625 105.367188 38.941406 L 112.609375 17.914062 L 113.777344 14.410156 C 113.855469 14.253906 113.933594 14.175781 114.089844 14.175781 L 120.785156 14.175781 C 120.941406 14.175781 121.019531 14.175781 121.097656 14.332031 C 122.34375 17.992188 123.667969 21.652344 124.914062 25.3125 C 126.703125 30.375 128.417969 35.359375 130.210938 40.421875 C 130.363281 40.652344 130.363281 40.730469 130.363281 40.808594 Z M 139.085938 22.820312 L 139.085938 26.167969 C 139.085938 26.402344 139.164062 26.402344 139.320312 26.402344 L 141.1875 26.402344 C 142.097656 26.453125 143.011719 26.429688 143.914062 26.324219 C 145.09375 26.300781 146.101562 25.457031 146.328125 24.300781 C 146.5625 23.300781 146.5625 22.261719 146.328125 21.261719 C 146.191406 20.320312 145.472656 19.570312 144.539062 19.394531 C 144.101562 19.304688 143.660156 19.25 143.214844 19.238281 L 139.398438 19.238281 C 139.164062 19.238281 139.085938 19.316406 139.085938 19.472656 Z M 148.277344 29.75 C 150.300781 33.410156 152.402344 37.148438 154.429688 40.808594 C 154.351562 40.886719 154.195312 40.808594 154.117188 40.808594 L 147.730469 40.808594 C 147.5625 40.832031 147.398438 40.738281 147.34375 40.574219 C 145.863281 37.460938 144.382812 34.265625 142.902344 31.152344 C 142.84375 30.992188 142.683594 30.894531 142.515625 30.917969 L 139.320312 30.917969 C 139.085938 30.917969 139.007812 30.996094 139.007812 31.230469 L 139.007812 40.5 C 139.007812 40.730469 138.929688 40.808594 138.695312 40.808594 L 133.324219 40.808594 C 133.089844 40.808594 133.011719 40.730469 133.011719 40.5 L 133.011719 14.566406 C 133.011719 14.253906 133.089844 14.175781 133.324219 14.175781 L 143.605469 14.175781 C 145.175781 14.148438 146.738281 14.441406 148.199219 15.03125 C 150.347656 15.839844 151.933594 17.691406 152.402344 19.9375 C 152.820312 21.710938 152.765625 23.566406 152.246094 25.3125 C 151.898438 27.4375 150.351562 29.167969 148.277344 29.75 Z M 96.722656 24.378906 C 96.566406 24.453125 96.566406 24.53125 96.488281 24.609375 C 94.542969 29.90625 92.28125 35.203125 90.257812 40.5 C 90.179688 40.730469 90.101562 40.808594 89.789062 40.808594 L 86.363281 40.808594 C 86.210938 40.808594 86.132812 40.730469 86.054688 40.574219 C 84.183594 35.824219 82.316406 31.074219 80.445312 26.402344 C 80.210938 25.777344 79.976562 25.078125 79.667969 24.378906 C 79.609375 24.554688 79.582031 24.738281 79.589844 24.921875 C 79.667969 30.140625 79.589844 35.28125 79.589844 40.5 C 79.589844 40.730469 79.511719 40.730469 79.355469 40.730469 L 74.605469 40.730469 C 74.371094 40.730469 74.371094 40.652344 74.371094 40.5 L 74.371094 14.488281 C 74.371094 14.253906 74.449219 14.175781 74.683594 14.175781 L 80.679688 14.175781 C 80.914062 14.175781 80.992188 14.253906 81.070312 14.488281 C 83.40625 20.40625 85.820312 26.246094 88 32.164062 C 88 32.242188 88 32.398438 88.15625 32.398438 C 88.3125 32.398438 88.234375 32.242188 88.234375 32.164062 C 90.257812 26.792969 92.515625 21.417969 94.617188 16.042969 C 94.859375 15.511719 95.070312 14.964844 95.242188 14.410156 C 95.320312 14.253906 95.398438 14.175781 95.554688 14.175781 L 101.628906 14.175781 C 101.863281 14.175781 101.9375 14.253906 101.9375 14.488281 L 101.9375 40.5 C 101.953125 40.613281 101.871094 40.71875 101.757812 40.730469 C 101.738281 40.734375 101.722656 40.734375 101.707031 40.730469 L 96.722656 40.730469 C 96.488281 40.730469 96.488281 40.652344 96.488281 40.5 L 96.488281 25.933594 C 96.476562 25.492188 96.503906 25.050781 96.566406 24.609375 C 96.722656 24.609375 96.722656 24.53125 96.722656 24.378906 Z M 176 14.332031 C 175.6875 15.65625 175.300781 17.058594 174.988281 18.382812 C 174.910156 18.691406 174.832031 19.003906 174.753906 19.394531 C 174.753906 19.628906 174.597656 19.628906 174.441406 19.628906 L 168.367188 19.628906 C 168.058594 19.628906 167.980469 19.703125 167.980469 19.9375 L 167.980469 40.339844 C 167.980469 40.730469 167.980469 40.730469 167.589844 40.730469 L 162.292969 40.730469 C 162.0625 40.730469 161.980469 40.652344 161.980469 40.421875 L 161.980469 19.9375 C 161.980469 19.628906 161.902344 19.550781 161.59375 19.550781 L 155.597656 19.550781 C 155.363281 19.550781 155.285156 19.472656 155.207031 19.238281 C 154.816406 17.601562 154.429688 16.042969 154.039062 14.410156 C 153.960938 14.097656 154.039062 14.097656 154.273438 14.097656 L 170.9375 14.097656 C 172.652344 14.253906 174.285156 14.253906 176 14.332031 "/>
<path style=" stroke:none;fill-rule:nonzero;fill:rgb(61.476135%,10.552979%,17.460632%);fill-opacity:1;" d="M 30.917969 21.808594 C 32.375 21.648438 33.597656 20.636719 34.03125 19.238281 C 34.148438 18.757812 34.0625 18.253906 33.796875 17.835938 C 33.683594 17.609375 33.410156 17.507812 33.175781 17.601562 C 32.835938 17.695312 32.519531 17.851562 32.242188 18.070312 C 31.261719 18.933594 30.625 20.125 30.449219 21.417969 C 30.371094 21.808594 30.371094 21.886719 30.917969 21.808594 Z M 52.957031 21.027344 C 53.011719 21.148438 53.039062 21.285156 53.035156 21.417969 C 52.984375 22.335938 53.089844 23.257812 53.34375 24.144531 C 53.53125 24.707031 53.765625 25.253906 54.046875 25.777344 C 53.105469 27.585938 51.710938 29.117188 49.996094 30.21875 C 48.589844 31.128906 46.898438 31.488281 45.246094 31.230469 C 43.609375 30.976562 42.210938 29.925781 41.507812 28.425781 C 41.273438 27.960938 41.117188 27.492188 40.886719 27.023438 C 40.417969 27.492188 39.949219 27.882812 39.484375 28.269531 C 38.125 29.476562 36.496094 30.328125 34.730469 30.761719 C 31.695312 31.53125 28.578125 29.835938 27.566406 26.871094 C 27.3125 26.1875 27.132812 25.484375 27.023438 24.765625 C 27.023438 24.609375 26.945312 24.53125 26.789062 24.453125 C 26.019531 23.96875 25.785156 22.949219 26.269531 22.179688 C 26.433594 21.917969 26.667969 21.707031 26.945312 21.574219 C 27.152344 21.515625 27.285156 21.316406 27.257812 21.105469 C 27.644531 19.25 28.566406 17.542969 29.90625 16.199219 C 30.933594 15.105469 32.371094 14.484375 33.875 14.488281 C 35.558594 14.425781 36.996094 15.691406 37.148438 17.367188 C 37.363281 19.378906 36.613281 21.375 35.121094 22.742188 C 33.941406 23.992188 32.382812 24.8125 30.683594 25.078125 C 30.527344 25.078125 30.527344 25.15625 30.527344 25.3125 C 30.996094 26.558594 31.773438 27.492188 33.253906 27.570312 C 34.914062 27.683594 36.539062 27.054688 37.691406 25.855469 C 38.617188 25.035156 39.429688 24.089844 40.105469 23.054688 C 40.183594 22.976562 40.183594 22.898438 40.183594 22.742188 C 40.199219 20.777344 40.40625 18.824219 40.808594 16.902344 C 41.039062 15.34375 41.351562 13.785156 41.664062 12.230469 C 41.742188 11.996094 41.664062 11.917969 41.429688 11.917969 C 39.5625 11.917969 37.691406 11.839844 35.824219 11.839844 L 34.886719 11.839844 C 34.027344 11.839844 33.332031 11.140625 33.332031 10.28125 C 33.332031 9.421875 34.027344 8.722656 34.886719 8.722656 C 36.757812 8.722656 38.703125 8.644531 40.574219 8.644531 L 42.132812 8.644531 C 42.246094 8.660156 42.351562 8.578125 42.363281 8.460938 C 42.367188 8.445312 42.367188 8.429688 42.363281 8.414062 L 43.296875 4.441406 C 43.519531 3.5625 44.34375 2.96875 45.246094 3.039062 C 46.109375 3.125 46.796875 3.808594 46.882812 4.675781 C 46.882812 5.40625 46.800781 6.140625 46.648438 6.855469 L 46.414062 8.257812 C 46.335938 8.492188 46.414062 8.644531 46.726562 8.570312 C 49.0625 8.570312 51.398438 8.492188 53.734375 8.492188 C 54.246094 8.472656 54.753906 8.582031 55.214844 8.800781 C 55.726562 9.074219 56.03125 9.625 55.992188 10.203125 C 55.953125 10.785156 55.59375 11.296875 55.058594 11.527344 C 54.449219 11.8125 53.78125 11.945312 53.109375 11.917969 L 46.257812 11.917969 C 45.945312 11.917969 45.867188 11.996094 45.789062 12.304688 C 45.246094 15.265625 44.621094 18.148438 44.15625 21.183594 C 43.921875 22.910156 44.082031 24.667969 44.621094 26.324219 C 44.710938 26.464844 44.761719 26.625 44.777344 26.792969 C 45.074219 27.703125 46.054688 28.203125 46.96875 27.90625 C 46.992188 27.898438 47.015625 27.890625 47.035156 27.882812 C 48.015625 27.644531 48.886719 27.097656 49.53125 26.324219 C 50.640625 25.121094 51.558594 23.753906 52.253906 22.273438 C 52.566406 21.808594 52.722656 21.417969 52.957031 21.027344 "/>
</g>
</svg>

<svg xmlns="http://www.w3.org/2000/svg" width="176pt" height="55.347" viewBox="0 0 176 41.51"><defs><clipPath id="a"><path d="M52 13h19v28.512H52Zm0 0"/></clipPath></defs><g clip-path="url(#a)"><path d="M52.957 21.027c.113-.406.191-.824.234-1.246.7-2.879 2.645-4.593 5.371-5.449a14.7 14.7 0 0 1 5.532-.469c1.883.157 3.742.551 5.527 1.168a.414.414 0 0 1 .328.485q-.005.032-.015.062l-.704 4.672c-.699-.156-1.398-.39-2.101-.547-1.824-.5-3.727-.66-5.606-.465a4.8 4.8 0 0 0-1.793.543 2.146 2.146 0 0 0-.234 3.508 9 9 0 0 0 2.262 1.164 40 40 0 0 1 4.75 1.793 7.8 7.8 0 0 1 3.347 2.805 6.8 6.8 0 0 1 1.09 3.816 7.976 7.976 0 0 1-6.465 8.254c-.687.18-1.39.281-2.101.313-.078 0-.078 0-.156.074H59.73a7 7 0 0 0-1.246-.153 16.6 16.6 0 0 1-5.375-1.636c-.152-.313-.23-.39-.152-.703.234-1.555.465-3.192.7-4.75.156 0 .312.156.468.234a15.5 15.5 0 0 0 7.477 1.715 5.15 5.15 0 0 0 2.101-.469 2.422 2.422 0 0 0 1.168-3.426 4.2 4.2 0 0 0-1.246-1.09 27 27 0 0 0-3.426-1.402 20.6 20.6 0 0 1-4.207-1.945 8.3 8.3 0 0 1-2.023-2.028 10.4 10.4 0 0 1-.703-1.632 8.3 8.3 0 0 1-.309-2.727q.117-.35 0-.469" style="stroke:none;fill-rule:nonzero;fill:#203c68;fill-opacity:1"/></g><path d="M24.61.004c0 .074.078.074.156.074a2.34 2.34 0 0 1 1.632 2.727c-.234 1.636-.386 3.195-.543 4.828-.234 1.793-.39 3.504-.625 5.297-.152 1.48-.308 3.035-.464 4.515-.235 1.637-.47 3.352-.703 4.985a30.3 30.3 0 0 1-1.09 5.297 16.6 16.6 0 0 1-3.192 6.152 9.04 9.04 0 0 1-7.71 3.191 14.34 14.34 0 0 1-7.864-2.722 10.37 10.37 0 0 1-4.129-6.621 2.6 2.6 0 0 1 .156-1.715 2.22 2.22 0 0 1 2.57-.934c.563.184.981.664 1.09 1.246.157.469.235.934.387 1.403a7.06 7.06 0 0 0 4.364 4.437 8.4 8.4 0 0 0 4.359.625 5.86 5.86 0 0 0 4.441-2.883 13.3 13.3 0 0 0 1.867-5.062c.47-2.883.782-5.762 1.09-8.645.157-1.789.391-3.582.625-5.449.235-2.027.387-4.129.543-6.152.078-.782.157-1.637.235-2.414a2.345 2.345 0 0 1 1.87-2.106c.044 0 .079-.031.079-.074z" style="stroke:none;fill-rule:nonzero;fill:#9d1b2d;fill-opacity:1"/><path d="M117.594 18.77h-.078c-1.012 3.972-2.258 7.867-3.352 11.918h5.844c.308 0 .699.074.855-.079.157-.16-.078-.547-.156-.859-.855-3.035-1.71-6.074-2.492-9.11a8.8 8.8 0 0 1-.621-1.87m12.77 22.039h-6.384c-.234 0-.312-.079-.39-.309-.469-1.559-.86-3.117-1.324-4.598-.079-.234-.157-.312-.391-.312h-9.031c-.235 0-.313.078-.39.312-.47 1.559-.856 3.114-1.325 4.672-.078.156-.078.235-.234.235h-6.153c.235-.621.39-1.246.625-1.868l7.242-21.027 1.168-3.504c.078-.156.157-.234.313-.234h6.695c.156 0 .235 0 .313.156 1.246 3.66 2.57 7.32 3.816 10.98 1.79 5.063 3.504 10.047 5.297 15.11.152.23.152.308.152.387m8.722-17.989v3.348c0 .234.078.234.234.234h1.868c.91.051 1.824.028 2.726-.078a2.51 2.51 0 0 0 2.414-2.023c.234-1 .234-2.04 0-3.04a2.22 2.22 0 0 0-1.789-1.866 7.6 7.6 0 0 0-1.324-.157h-3.817c-.234 0-.312.078-.312.235Zm9.191 6.93c2.024 3.66 4.125 7.398 6.153 11.059-.078.078-.235 0-.313 0h-6.387a.35.35 0 0 1-.386-.235c-1.48-3.113-2.961-6.308-4.442-9.422a.36.36 0 0 0-.386-.234h-3.196c-.234 0-.312.078-.312.312v9.27c0 .23-.078.309-.313.309h-5.37c-.235 0-.313-.079-.313-.309V14.566c0-.312.078-.39.312-.39h10.281a11.7 11.7 0 0 1 4.594.855 6.7 6.7 0 0 1 4.203 4.906 10.45 10.45 0 0 1-.156 5.375 5.54 5.54 0 0 1-3.969 4.438m-51.554-5.371c-.157.074-.157.152-.235.23-1.945 5.297-4.207 10.594-6.23 15.891-.078.23-.156.309-.469.309h-3.426c-.152 0-.23-.079-.308-.235-1.871-4.75-3.739-9.5-5.61-14.172-.234-.625-.468-1.324-.777-2.023-.059.176-.086.36-.078.543.078 5.219 0 10.36 0 15.578 0 .23-.078.23-.235.23h-4.75c-.234 0-.234-.078-.234-.23V14.488c0-.234.078-.312.313-.312h5.996c.234 0 .312.078.39.312 2.336 5.918 4.75 11.758 6.93 17.676 0 .078 0 .234.156.234s.078-.156.078-.234c2.024-5.371 4.282-10.746 6.383-16.121q.365-.799.625-1.633c.078-.156.156-.234.313-.234h6.074c.234 0 .308.078.308.312V40.5a.204.204 0 0 1-.18.23.1.1 0 0 1-.05 0h-4.984c-.235 0-.235-.078-.235-.23V25.934a8 8 0 0 1 .078-1.325c.157 0 .157-.078.157-.23M176 14.332c-.312 1.324-.7 2.727-1.012 4.05-.078.31-.156.622-.234 1.013 0 .234-.156.234-.313.234h-6.074c-.308 0-.387.074-.387.308V40.34c0 .39 0 .39-.39.39h-5.297c-.23 0-.313-.078-.313-.308V19.938c0-.31-.078-.387-.386-.387h-5.996c-.235 0-.313-.078-.391-.313-.39-1.636-.777-3.195-1.168-4.828-.078-.312 0-.312.234-.312h16.665c1.714.156 3.347.156 5.062.234" style="stroke:none;fill-rule:nonzero;fill:#203c68;fill-opacity:1"/><path d="M30.918 21.809a3.68 3.68 0 0 0 3.113-2.57 1.8 1.8 0 0 0-.234-1.403.493.493 0 0 0-.621-.234 2.6 2.6 0 0 0-.934.468 5.44 5.44 0 0 0-1.793 3.348c-.078.39-.078.469.469.39m22.039-.782a.9.9 0 0 1 .078.391c-.05.918.055 1.84.309 2.727.187.562.422 1.109.703 1.632a11.7 11.7 0 0 1-4.05 4.442 6.8 6.8 0 0 1-4.75 1.011 4.97 4.97 0 0 1-3.74-2.804c-.234-.465-.39-.934-.62-1.403-.469.47-.938.86-1.403 1.247a11.16 11.16 0 0 1-4.754 2.492 6.01 6.01 0 0 1-7.164-3.89 10.6 10.6 0 0 1-.543-2.106c0-.157-.078-.235-.234-.313a1.65 1.65 0 0 1 .156-2.879.43.43 0 0 0 .313-.469 9.8 9.8 0 0 1 2.648-4.906 5.43 5.43 0 0 1 3.969-1.71 3.17 3.17 0 0 1 3.273 2.878 6.37 6.37 0 0 1-2.027 5.375 7.74 7.74 0 0 1-4.437 2.336c-.157 0-.157.078-.157.235.47 1.246 1.246 2.18 2.727 2.257a5.62 5.62 0 0 0 4.437-1.715 13.9 13.9 0 0 0 2.414-2.8c.079-.078.079-.157.079-.313.015-1.965.222-3.918.625-5.84.23-1.558.543-3.117.855-4.672.078-.234 0-.312-.234-.312-1.867 0-3.739-.078-5.606-.078h-.937c-.86 0-1.555-.7-1.555-1.559 0-.86.695-1.558 1.555-1.558 1.87 0 3.816-.078 5.687-.078h1.559a.204.204 0 0 0 .23-.184.1.1 0 0 0 0-.047l.934-3.973a1.865 1.865 0 0 1 1.95-1.402c.862.086 1.55.77 1.636 1.637 0 .73-.082 1.465-.235 2.18l-.234 1.402c-.078.234 0 .387.313.312 2.336 0 4.671-.078 7.007-.078.512-.02 1.02.09 1.48.309.513.273.817.824.778 1.402a1.55 1.55 0 0 1-.933 1.324 4.2 4.2 0 0 1-1.95.391h-6.851c-.313 0-.39.078-.469.387-.543 2.96-1.168 5.843-1.633 8.879a11.6 11.6 0 0 0 .465 5.14c.09.14.14.301.156.469a1.74 1.74 0 0 0 2.258 1.09 4.7 4.7 0 0 0 2.496-1.559 16 16 0 0 0 2.723-4.05c.312-.465.469-.856.703-1.247" style="stroke:none;fill-rule:nonzero;fill:#9d1b2d;fill-opacity:1"/></svg>
